X: 53
T: Motet cycle Ave mundi domina &mdash; 2. Ave mater gloriosa
C: Gaspar van Weerbeke
%%abc-version 2.0
%%abcx-abcm2ps-target-version 5.9.1 (29 Sep 2008)
%%abc-creator hum2abc beta
%%abcx-conversion-date 2022/03/06 13:05:57
%%abc-copyright Copyright 2021, Pavanello, Agnese
%%abc-edited-by Sapp, Craig Stuart
%%abc-edited-by Wissmann, Rolf
%%humdrum-veritas 3687628333
%%humdrum-veritas-data 1511353890
%%linebreak <none>
%%barnumbers 0
L: 1/4
M: C|
N: Derived from Gas0301b-Ave_mundi_domina-Ave_mater_gloriosa.krn
%%staves [1 2 3 4]
V: 1 clef=treble
V: 2 clef=treble-8
V: 3 clef=treble-8
V: 4 clef=bass
K: F
[V:1] z8 | 
[V:2] d8 | 
[V:3] G8 | 
[V:4] G,8 | 
[V:1] z8 | 
[V:2] e4f4 | 
[V:3] G4F4 | 
[V:4] E,4D,4 | 
[V:1] G8 | 
[V:2] d8 | 
[V:3] G4B4- | 
[V:4] G,,8 | 
[V:1] G4F4 | 
[V:2] d4d4 | 
[V:3] B4A4 | 
[V:4] G,4D,4 | 
[V:1] G4B4- | 
[V:2] B4G4 | 
[V:3] G6A2 | 
[V:4] _E,6F,2 | 
[V:1] B4A4 | 
[V:2] d2>e2f4 | 
[V:3] B4c4 | 
[V:4] G,4F,4 | 
[V:1] G6_E2 | 
[V:2] _e2d4c2 | 
[V:3] B4G4 | 
[V:4] G,4_E,4 | 
[V:1] F6G2 | 
[V:2] d6cB | 
[V:3] A4d4- | 
[V:4] D,8 | 
[V:1] A4D4 | 
[V:2] A4G4- | 
[V:3] d2c2B3A | 
[V:4] F,4G,4 | 
[V:1] E2G4^F2 | 
[V:2] G2d2>c2A2 | 
[V:3] G2B2A4 | 
[V:4] G,,4D,4 | 
[V:1] G4z4 | 
[V:2] B2>c2d2_e2- | 
[V:3] G8 | 
[V:4] G,,2>A,,2B,,2C,2- | 
[V:1] z4G4 | 
[V:2] e2d4c2 | 
[V:3] z8 | 
[V:4] C,2D,2_E,4 | 
[V:1] F4A4 | 
[V:2] d4f2f2 | 
[V:3] z8 | 
[V:4] D,4z4 | 
[V:1] B4A4 | 
[V:2] g4f4 | 
[V:3] z4F4 | 
[V:4] z8 | 
[V:1] G2F2F4 | 
[V:2] _e2d2c4 | 
[V:3] G2B4A2 | 
[V:4] z4F,4 | 
[V:1] D4z4 | 
[V:2] B4F4 | 
[V:3] B2d2c4 | 
[V:4] G,2B,4A,2 | 
[V:1] z4F4 | 
[V:2] G2B4A2 | 
[V:3] B4z4 | 
[V:4] B,2B,,2F,4 | 
[V:1] G2B4A2 | 
[V:2] B2d2c4 | 
[V:3] z8 | 
[V:4] B,,4z2F,2 | 
[V:1] B2d2c4 | 
[V:2] B4z4 | 
[V:3] z4A4 | 
[V:4] D,2B,,2F,4 | 
[V:1] B4z4 | 
[V:2] z8 | 
[V:3] B2d4c2 | 
[V:4] G,2D,2_E,4 | 
[V:1] z8 | 
[V:2] z8 | 
[V:3] d4B2A2- | 
[V:4] F,2D,4C,2 | 
[V:1] z4A4 | 
[V:2] z8 | 
[V:3] A2G4^F2 | 
[V:4] D,2B,,2A,,4 | 
[V:1] B4A4 | 
[V:2] z8 | 
[V:3] G4A4 | 
[V:4] G,,4z4 | 
[V:1] G4F2G2- | 
[V:2] z8 | 
[V:3] B4A2B2 | 
[V:4] z8 | 
[V:1] G2F4E2 | 
[V:2] z8 | 
[V:3] c2A2G4 | 
[V:4] z8 | 
[V:1] F4z4 | 
[V:2] c4d2f2 | 
[V:3] F4z4 | 
[V:4] z8 | 
[V:1] z8 | 
[V:2] e4d4 | 
[V:3] z8 | 
[V:4] C,4D,2F,2 | 
[V:1] z8 | 
[V:2] z2c2d2f2 | 
[V:3] z8 | 
[V:4] E,4D,4 | 
[V:1] z8 | 
[V:2] e2g2f2ed | 
[V:3] z8 | 
[V:4] z2C,2D,2F,2 | 
[V:1] z8 | 
[V:2] c2B2A3B | 
[V:3] z8 | 
[V:4] E,2G,2F,2E,D, | 
[V:1] z8 | 
[V:2] A2d4^c2 | 
[V:3] z8 | 
[V:4] C,2D,2E,4 | 
[V:1] z8 | 
[V:2] d4z4 | 
[V:3] z8 | 
[V:4] D,4z4 | 
[V:1] A6A2 | 
[V:2] d6d2 | 
[V:3] A6A2 | 
[V:4] D,6D,2 | 
[V:1] A4B4 | 
[V:2] e4f4 | 
[V:3] c4d4 | 
[V:4] C,4B,,4 | 
[V:1] A4G2A2- | 
[V:2] f4e2f2- | 
[V:3] c4B2c2- | 
[V:4] F,4G,2F,2- | 
[V:1] A2G4^F2 | 
[V:2] fec2d4 | 
[V:3] c2G2A4 | 
[V:4] F,G,E,2D,4 | 
[V:1] (3:2:2G2z2z4 | 
[V:2] (3d2g2g2 | 
[V:3] (3G2B2B2 | 
[V:4] (3:2:4G,,2z2G,2G,2 | 
[V:1] z8 | 
[V:2] (3:2:4f2e2g2e2 | 
[V:3] (3:2:4A2c2B2c2 | 
[V:4] (3:2:4D,2C,2G,2C,2 | 
[V:1] z4(3:2:2G2G2 | 
[V:2] (3:2:2^f2g2z4 | 
[V:3] (3:2:4A2G2B2B2 | 
[V:4] (3:2:4D,2G,,2G,2G,2 | 
[V:1] (3:2:4F2E2G2E2 | 
[V:2] z8 | 
[V:3] (3:2:4A2c2B2c2 | 
[V:4] (3:2:4D,2C,2G,2C,2 | 
[V:1] (3:2:4^F2G2B2G2 | 
[V:2] z4(3g2d2e2 | 
[V:3] (3:2:4A2G2d2B2 | 
[V:4] (3D,2G,,2G,2 | 
[V:1] (3:2:4A2F2G2_E2 | 
[V:2] (3f2c2d2(3_e2B2c2 | 
[V:3] (3:2:4c2A2B2G2 | 
[V:4] (3:2:2F,2_E,2 | 
[V:1] (3:2:4F2A2G2^F2 | 
[V:2] (3d2>c4d2 | 
[V:3] (3:2:4A2F2G2A2 | 
[V:4] (3D,2>_E,4D,2 | 
[V:1] G8 |]  
[V:2] d8 |]  
[V:3] G8 |]  
[V:4] G,,8 |]  


